!!!OTL: Christus zmartwichwstal iest
**kern
*staff1
=--
*clefC1
*k[]
*met(c)
*M4/4
0b
=-
1dd
1a
=-
1cc
1b
=-
2a
1dd
2cc
=-
0dd
=-
1cc
2b
2g
=-
2a
2b
1dd
=-
1cc
1b
=-
0a
!!linebreak:original
=-
2.b
4cc
2.dd
4cc
=-
2.a
4b
1cc
=-
2b
2cc
2a
2dd
=-
0cc
=-
1cc
1a
=-
1dd
1b
=-
1g
2a
2dd
=-
1cc
0dd
=-
!!linebreak:original
2.ee
4dd
2cc
2b
1a
1dd
2cc
2b
=-
1cc
0dd
1g
=-
2.cc
4b
1a
=-
2cc
2a
2b
2cc
=-
2a
2dd
0cc
=-
0dd
=-
0dd
=-=
*-
!!title: @{OTL}, @{GTL}, ed. @{ENC}
!!!pag:
!!!GTL: Hymnbook C
!!!EFL: 
!!!YEM: Creative Commons CC/BY/NC/SA 4.0
!!!ENC: Marcin Konik
!!!END: 2015-0m-dd
!!!EED: Marcin Konik
!!!EEV: 
!!!ONB: Encoded in vim by Marcin Konik
!!!CharacterEncoding: utf-8
!!!RDF**kern: l=long note in original notation
!!!RDF**kern: i=editorial accidental
!!muse2ps: z14jc180F
!!!COM: Anonim
!!!CDT: [?]
!!!TXO: Polish
!!!ODT: 
!!!GTL: Hymnbook C
!!!ARL: Opactwo św. Wojciecha, Staniątki 
!!!voices:	1
